**kern	**silbe	**harmony	**phrase	**leadinstrument	**rhyme	**timestamp	**harte
*ICvox	*	*M4/4	*	*	*	*	*M4/4
*VRlead*VRriffing	*	*	*	*	*	*	*
*Hstimme	*	*	*	*	*	*	*
*C:	*	*C:	*	*	*	*	*C:
*M4/4	*	*	*	*	*	*	*
*clefG2	*	*	*	*	*	*	*
r;	.	1r;	.	r	.	0	N.C.
=1	=1	=1	=1	=1	=1	=1	=1
*>Letter>A	*>Letter>A	*>Letter>A	*>Letter>A	*>Letter>A	*>Letter>A	*>Letter>A	*>Letter>A
*>Label>Introa	*>Label>Introa	*>Label>Introa	*>Label>Introa	*>Label>Introa	*>Label>Introa	*>Label>Introa	*>Label>Introa
1r	.	1N	newline	drums	.	0.116	N.C.
=2	=2	=2	=2	=2	=2	=2	=2
1r	.	1N	.	drums	.	2.967	N.C.
=3	=3	=3	=3	=3	=3	=3	=3
*>Letter>B	*>Letter>B	*>Letter>B	*>Letter>B	*>Letter>B	*>Letter>B	*>Letter>B	*>Letter>B
*>Label>Introb	*>Label>Introb	*>Label>Introb	*>Label>Introb	*>Label>Introb	*>Label>Introb	*>Label>Introb	*>Label>Introb
1r	.	2Amm	newline	guitar	.	5.817	A:min7
.	.	2GM	.	guitar	.	7.173	G:maj/3
=4	=4	=4	=4	=4	=4	=4	=4
1r	.	2CMM	.	guitar	.	8.53	C:maj7
.	.	2FM	.	guitar	.	9.886	F:maj
=5	=5	=5	=5	=5	=5	=5	=5
1r	.	2Amm	newline	guitar	.	11.242	A:min7
.	.	2GM	.	guitar	.	12.611	G:maj/3
=6	=6	=6	=6	=6	=6	=6	=6
2r	.	2CMM	.	guitar	.	13.98	C:maj7
16e	You	2FM	.	guitar	.	15.349	F:maj
8.d	_	.	.	.	.	.	.
8d	with	.	.	.	.	.	.
8c	the	.	.	.	.	.	.
=7	=7	=7	=7	=7	=7	=7	=7
*>Letter>C	*>Letter>C	*>Letter>C	*>Letter>C	*>Letter>C	*>Letter>C	*>Letter>C	*>Letter>C
*>Label>Verse	*>Label>Verse	*>Label>Verse	*>Label>Verse	*>Label>Verse	*>Label>Verse	*>Label>Verse	*>Label>Verse
2c	sad	2Amm	newline	voice	.	16.718	A:min7
4G	heart,	2GM	.	voice	A	18.11	G:maj/3
4r	.	.	.	.	.	.	.
=8	=8	=8	=8	=8	=8	=8	=8
8e	don't	2CM	.	voice	.	19.501	C:maj
8f	be	.	.	.	.	.	.
8g	dis-	.	.	.	.	.	.
[8g	-cour-	.	.	.	(B	.	.
8g]	_	2CM	.	voice	.	20.892	C:maj/3
8f	-aged	.	.	.	b)	.	.
8e	Oh	.	.	.	.	.	.
8d	I	.	.	.	.	.	.
=9	=9	=9	=9	=9	=9	=9	=9
8d	re-	2FM	.	voice	.	22.284	F:maj(9)
8e	-a-	.	.	.	.	.	.
4.c	-lize	.	.	.	.	.	.
.	.	2FM	.	voice	.	23.675	F:maj
8G	it's	.	.	.	.	.	.
4r	.	.	.	.	.	.	.
=10	=10	=10	=10	=10	=10	=10	=10
8e-	hard	2Am	.	voice	A	25.067	A:min
8d	to	.	.	.	.	.	.
8d	take	.	.	.	.	.	.
8d	cour-	.	.	.	(B	.	.
8c	-age	2GM	.	voice	b)	26.458	G:maj
4r	.	.	.	.	.	.	.
16c	In	.	.	.	.	.	.
16c	a	.	.	.	.	.	.
=11	=11	=11	=11	=11	=11	=11	=11
4c	world	2CM	newline	voice	.	27.85	C:maj
8r	.	.	.	.	.	.	.
16c	full	.	.	.	.	.	.
16c	of	.	.	.	.	.	.
8d	peo-	2Dm	.	voice	.	29.237	D:min
16c	-ple	.	.	.	.	.	.
8.d	_	.	.	.	.	.	.
8r	.	.	.	.	.	.	.
=12	=12	=12	=12	=12	=12	=12	=12
8c	you	2CM	.	voice	.	30.623	C:maj/3
8e	can	.	.	.	.	.	.
8f	lose	.	.	.	.	.	.
8g	sight	.	.	.	.	.	.
8g	of	2FM	.	voice	.	32.01	F:maj
8a	it	.	.	.	.	.	.
8c	all	.	.	.	C	.	.
16c	And	.	.	.	.	.	.
16c	the	.	.	.	.	.	.
=13	=13	=13	=13	=13	=13	=13	=13
8d	dark-	2Am	.	voice	.	33.397	A:min
8d	-ness	.	.	.	.	.	.
8d	so	.	.	.	.	.	.
8d	in-	.	.	.	.	.	.
8d	-side	2GM	.	voice	.	34.784	G:maj
8c	you,	.	.	.	.	.	.
8c	make	.	.	.	.	.	.
8c	you	.	.	.	.	.	.
=14	=14	=14	=14	=14	=14	=14	=14
8c	feel	2FM	.	voice	.	36.171	F:maj/5
[8c	so	.	.	.	.	.	.
8c]	_	.	.	.	.	.	.
8c	small	.	.	.	C	.	.
8r	.	2CM	.	voice	.	37.558	C:maj
16c	But	.	.	.	.	.	.
16c	I	.	.	.	.	.	.
8e	see	.	.	.	.	.	.
8g	your	.	.	.	.	.	.
=15	=15	=15	=15	=15	=15	=15	=15
*>Letter>D	*>Letter>D	*>Letter>D	*>Letter>D	*>Letter>D	*>Letter>D	*>Letter>D	*>Letter>D
*>Label>Chorus	*>Label>Chorus	*>Label>Chorus	*>Label>Chorus	*>Label>Chorus	*>Label>Chorus	*>Label>Chorus	*>Label>Chorus
4.a	true	2FM	newline	voice	D	38.944	F:maj
[8a	co-	.	.	.	.	.	.
8a]	_	2CM	.	voice	.	40.324	C:maj
[8g	-lors	.	.	.	.	.	.
8g]	_	.	.	.	.	.	.
[8e	shi-	.	.	.	.	.	.
=16	=16	=16	=16	=16	=16	=16	=16
8e]	_	2GM	.	voice	.	41.704	G:sus4
8d	-ning	.	.	.	.	.	.
[8e	through	.	.	.	D	.	.
8e]	_	.	.	.	.	.	.
8r	.	2GM	.	voice	.	43.083	G:maj
8c	I	.	.	.	.	.	.
8e	see	.	.	.	.	.	.
8g	your	.	.	.	.	.	.
=17	=17	=17	=17	=17	=17	=17	=17
4.a	true	2FM	newline	voice	D	44.463	F:maj
8a	co-	.	.	.	.	.	.
8g	_	2CM	.	voice	.	45.858	C:maj/3
8g	-lors,	.	.	.	.	.	.
8r	.	.	.	.	.	.	.
8c	and	.	.	.	.	.	.
=18	=18	=18	=18	=18	=18	=18	=18
8a	that's	2FM	.	voice	.	47.252	F:maj
8a	why	.	.	.	.	.	.
8a	I	.	.	.	.	.	.
[8a	lo-	.	.	.	.	.	.
8a]	_	2GM	.	voice	.	48.647	G:maj
8g	-ve	.	.	.	.	.	.
8g	you	.	.	.	D	.	.
8g	So	.	.	.	.	.	.
=19	=19	=19	=19	=19	=19	=19	=19
8a	don't	2FM	.	voice	.	50.041	F:maj
8a	be	.	.	.	.	.	.
8g	a-	.	.	.	.	.	.
[8g	-fraid	.	.	.	.	.	.
4g]	_	2CM	.	voice	.	51.436	C:maj
8r	.	.	.	.	.	.	.
8c	to	.	.	.	.	.	.
=20	=20	=20	=20	=20	=20	=20	=20
8d	let	2FM	.	voice	.	52.83	F:maj
8d	them	.	.	.	.	.	.
8c	_	.	.	.	.	.	.
[8d	show	.	.	.	E	.	.
8d]	_	2Am	.	voice	.	54.225	A:min
8c	_	.	.	.	.	.	.
4c	your	.	.	.	.	.	.
=21	=21	=21	=21	=21	=21	=21	=21
4.c	true	2FM	newline	voice	D	55.619	F:maj/5
[8c	co-	.	.	.	.	.	.
8c]	_	2CM	.	voice	.	57.023	C:maj
8c	-lors	.	.	.	.	.	.
4r	.	.	.	.	.	.	.
=22	=22	=22	=22	=22	=22	=22	=22
4.c	True	2FM	.	voice	D	58.426	F:maj/5
[8c	co-	.	.	.	.	.	.
16c]	_	2CM	.	voice	.	59.83	C:maj
16d	_	.	.	.	.	.	.
8e	-lors	.	.	.	.	.	.
8r	.	.	.	.	.	.	.
8A	are	.	.	.	.	.	.
=23	=23	=23	=23	=23	=23	=23	=23
4..e	beau-	1GM	newline	voice	.	61.234	G:sus4(9)
16d	-ti-	.	.	.	.	.	.
4d	-ful	.	.	.	.	.	.
8c	like	.	.	.	.	.	.
8c	a	.	.	.	.	.	.
=24	=24	=24	=24	=24	=24	=24	=24
*>Letter>B	*>Letter>B	*>Letter>B	*>Letter>B	*>Letter>B	*>Letter>B	*>Letter>B	*>Letter>B
*>Label>Trans	*>Label>Trans	*>Label>Trans	*>Label>Trans	*>Label>Trans	*>Label>Trans	*>Label>Trans	*>Label>Trans
4..c	rain-	2Amm	newline	guitar	.	64.296	A:min7
16B	_	.	.	.	.	.	.
4A	-bow	2GM	.	guitar	E	65.668	G:maj/3
4r	.	.	.	.	.	.	.
=25	=25	=25	=25	=25	=25	=25	=25
1r	.	2CMM	.	guitar	.	67.039	C:maj7
.	.	2FM	.	guitar	.	68.411	F:maj
=26	=26	=26	=26	=26	=26	=26	=26
1r	.	2Amm	newline	guitar	.	69.782	A:min7
.	.	2GM	.	guitar	.	71.203	G:maj/3
=27	=27	=27	=27	=27	=27	=27	=27
2r	.	2CMM	.	guitar	.	72.623	C:maj7
16e	Show	2FM	.	guitar	E	74.044	F:maj
[8.d	_	.	.	.	.	.	.
8d]	_	.	.	.	.	.	.
16c	me	.	.	.	.	.	.
16c	a	.	.	.	.	.	.
=28	=28	=28	=28	=28	=28	=28	=28
*>Letter>C	*>Letter>C	*>Letter>C	*>Letter>C	*>Letter>C	*>Letter>C	*>Letter>C	*>Letter>C
*>Label>Verse	*>Label>Verse	*>Label>Verse	*>Label>Verse	*>Label>Verse	*>Label>Verse	*>Label>Verse	*>Label>Verse
4.c	smile	2Amm	newline	voice	.	75.465	A:min7
8G	then,	.	.	.	.	.	.
2r	.	2GM	.	voice	.	76.867	G:maj/3
=29	=29	=29	=29	=29	=29	=29	=29
8e	don't	2CM	.	voice	.	78.268	C:maj
8f	be	.	.	.	.	.	.
8g	un-	.	.	.	.	.	.
[8g	-ha-	.	.	.	(F	.	.
8g]	_	2CM	.	voice	.	79.67	C:maj/3
8f	-ppy	.	.	.	f)	.	.
8e	Can't	.	.	.	.	.	.
16d	re-	.	.	.	.	.	.
[16d	-mem-	.	.	.	.	.	.
=30	=30	=30	=30	=30	=30	=30	=30
8d]	_	2FM	.	voice	.	81.072	F:maj(9)
8e	-ber	.	.	.	.	.	.
4.c	when	.	.	.	.	.	.
.	.	2FM	.	voice	.	82.474	F:maj
8A	I	.	.	.	.	.	.
4r	.	.	.	.	.	.	.
=31	=31	=31	=31	=31	=31	=31	=31
8e-	last	2Am	.	voice	.	83.875	A:min
8d	saw	.	.	.	.	.	.
8d	you	.	.	.	.	.	.
8e-	laugh-	.	.	.	(F	.	.
8c	-ing	2GM	.	voice	f)	85.277	G:maj
4r	.	.	.	.	.	.	.
8c	If	.	.	.	.	.	.
=32	=32	=32	=32	=32	=32	=32	=32
8c	this	2CM	newline	voice	.	86.679	C:maj
8c	world	.	.	.	.	.	.
8c	makes	.	.	.	.	.	.
8c	you	.	.	.	.	.	.
8d	cra-	2Dm	.	voice	.	88.088	D:min
8c	-zy	.	.	.	.	.	.
8c	and	.	.	.	.	.	.
8c	you've	.	.	.	.	.	.
=33	=33	=33	=33	=33	=33	=33	=33
8e	ta-	2CM	.	voice	.	89.498	C:maj/3
8f	-ken	.	.	.	.	.	.
8g	all	.	.	.	.	.	.
8g	you	.	.	.	.	.	.
8a	can	2FM	.	voice	.	90.907	F:maj
8c	bear	.	.	.	G	.	.
8r	.	.	.	.	.	.	.
8c	You	.	.	.	.	.	.
=34	=34	=34	=34	=34	=34	=34	=34
8e-	call	2Am	.	voice	.	92.316	A:min
8d	me	.	.	.	.	.	.
8d	up	.	.	.	.	.	.
4r	.	.	.	.	.	.	.
.	.	2GM	.	voice	.	93.726	G:maj
8G	be-	.	.	.	.	.	.
8G	-cause	.	.	.	.	.	.
8G	you	.	.	.	.	.	.
=35	=35	=35	=35	=35	=35	=35	=35
8c	know	2FM	.	voice	.	95.135	F:maj/5
8c	I'll	.	.	.	.	.	.
8c	be	.	.	.	.	.	.
8c	there	.	.	.	G	.	.
8r	.	2CM	.	voice	.	96.544	C:maj
16c	And	.	.	.	.	.	.
16c	I	.	.	.	.	.	.
8e	see	.	.	.	.	.	.
8g	your	.	.	.	.	.	.
=36	=36	=36	=36	=36	=36	=36	=36
*>Letter>D	*>Letter>D	*>Letter>D	*>Letter>D	*>Letter>D	*>Letter>D	*>Letter>D	*>Letter>D
*>Label>Chorus	*>Label>Chorus	*>Label>Chorus	*>Label>Chorus	*>Label>Chorus	*>Label>Chorus	*>Label>Chorus	*>Label>Chorus
4.a	true	2FM	newline	voice	D	97.954	F:maj
[8a	co-	.	.	.	.	.	.
8a]	_	2CM	.	voice	.	99.349	C:maj
[8g	-lors	.	.	.	.	.	.
8g]	_	.	.	.	.	.	.
[8a	shi-	.	.	.	.	.	.
=37	=37	=37	=37	=37	=37	=37	=37
8a]	_	2GM	.	voice	.	100.743	G:sus4
8g	-ning	.	.	.	.	.	.
[8a	through	.	.	.	D	.	.
8a]	_	.	.	.	.	.	.
8r	.	2GM	.	voice	.	102.138	G:maj
8c	I	.	.	.	.	.	.
8e	see	.	.	.	.	.	.
8g	your	.	.	.	.	.	.
=38	=38	=38	=38	=38	=38	=38	=38
4.a	true	2FM	newline	voice	D	103.533	F:maj
8a	co-	.	.	.	.	.	.
8g	_	2CM	.	voice	.	104.94	C:maj/3
8g	-lors,	.	.	.	.	.	.
8r	.	.	.	.	.	.	.
8c	and	.	.	.	.	.	.
=39	=39	=39	=39	=39	=39	=39	=39
8a	that's	2FM	.	voice	.	106.347	F:maj
8a	why	.	.	.	.	.	.
8a	I	.	.	.	.	.	.
[8a	lo-	.	.	.	.	.	.
8a]	_	2GM	.	voice	.	107.753	G:maj
8g	-ve	.	.	.	.	.	.
8g	you	.	.	.	D	.	.
8g	So	.	.	.	.	.	.
=40	=40	=40	=40	=40	=40	=40	=40
8cc	don't	2FM	.	voice	.	109.16	F:maj
8cc	be	.	.	.	.	.	.
8a	a-	.	.	.	.	.	.
[8cc	-fraid	.	.	.	.	.	.
4cc]	_	2CM	.	voice	.	110.567	C:maj
8r	.	.	.	.	.	.	.
8e	to	.	.	.	.	.	.
=41	=41	=41	=41	=41	=41	=41	=41
[8d	let	2FM	.	voice	.	111.974	F:maj
8d]	_	.	.	.	.	.	.
8c	it	.	.	.	.	.	.
[8d	show,	.	.	.	E	.	.
8d]	_	2Am	.	voice	.	113.38	A:min
8c	_	.	.	.	.	.	.
4c	your	.	.	.	.	.	.
=42	=42	=42	=42	=42	=42	=42	=42
4.c	true	2FM	newline	voice	.	114.787	F:maj/5
[8c	co-	.	.	.	.	.	.
8c]	_	2CM	.	voice	.	116.185	C:maj
8A	-lors	.	.	.	.	.	.
4r	.	.	.	.	.	.	.
=43	=43	=43	=43	=43	=43	=43	=43
4.c	True	2FM	.	voice	.	117.583	F:maj/5
[8c	co-	.	.	.	.	.	.
16c]	_	2CM	.	voice	.	118.981	C:maj
16d	_	.	.	.	.	.	.
8e	-lors	.	.	.	.	.	.
8r	.	.	.	.	.	.	.
8A	are	.	.	.	.	.	.
=44	=44	=44	=44	=44	=44	=44	=44
4..e	beau-	1GM	newline	voice	.	120.378	G:sus4(9)
16d	-ti-	.	.	.	.	.	.
4d	-ful	.	.	.	.	.	.
8c	like	.	.	.	.	.	.
8c	a	.	.	.	.	.	.
=45	=45	=45	=45	=45	=45	=45	=45
*>Letter>B	*>Letter>B	*>Letter>B	*>Letter>B	*>Letter>B	*>Letter>B	*>Letter>B	*>Letter>B
*>Label>Trans	*>Label>Trans	*>Label>Trans	*>Label>Trans	*>Label>Trans	*>Label>Trans	*>Label>Trans	*>Label>Trans
4.c	rain-	2Amm	newline	guitar	.	123.447	A:min7
8B	_	.	.	.	.	.	.
4A	-bow	2GM	.	guitar	E	124.821	G:maj/3
4r	.	.	.	.	.	.	.
=46	=46	=46	=46	=46	=46	=46	=46
1r	.	2CMM	.	guitar	.	126.195	C:maj7
.	.	2FM	.	guitar	.	127.569	F:maj
=47	=47	=47	=47	=47	=47	=47	=47
1r	.	2Amm	newline	guitar	.	128.943	A:min7
.	.	2GM	.	guitar	.	130.309	G:maj/3
=48	=48	=48	=48	=48	=48	=48	=48
2r	.	2CMM	.	guitar	.	131.675	C:maj7
[2e	Ooh	2FM	.	guitar	.	133.041	F:maj
=49	=49	=49	=49	=49	=49	=49	=49
*>Letter>C	*>Letter>C	*>Letter>C	*>Letter>C	*>Letter>C	*>Letter>C	*>Letter>C	*>Letter>C
*>Label>Verse	*>Label>Verse	*>Label>Verse	*>Label>Verse	*>Label>Verse	*>Label>Verse	*>Label>Verse	*>Label>Verse
2e_	_	2Amm	newline	voice	.	134.407	A:min7
4.e]	_	2GM	.	voice	.	135.783	G:maj/3
8r	.	.	.	.	.	.	.
=50	=50	=50	=50	=50	=50	=50	=50
2c	Ah	2CM	.	voice	.	137.158	C:maj
2r	.	2CM	.	voice	.	138.534	C:maj/3
=51	=51	=51	=51	=51	=51	=51	=51
8r	.	2FM	.	voice	.	139.909	F:maj(9)
8~c	Can't	.	.	.	.	.	.
16~c	re-	.	.	.	.	.	.
8~c	-mem-	.	.	.	.	.	.
16~c	-ber	.	.	.	.	.	.
4r	.	2FM	.	voice	.	141.285	F:maj
16~c	when	.	.	.	.	.	.
8.~c	I	.	.	.	.	.	.
=52	=52	=52	=52	=52	=52	=52	=52
8~c	last	2Am	.	voice	.	142.66	A:min
8~c	saw	.	.	.	.	.	.
8~c	you	.	.	.	.	.	.
8~c	laugh	.	.	.	F	.	.
2r	.	2GM	.	voice	.	144.036	G:maj
=53	=53	=53	=53	=53	=53	=53	=53
8c	If	2CM	newline	voice	.	145.411	C:maj
8c	this	.	.	.	.	.	.
8c	world	.	.	.	.	.	.
8c	makes	.	.	.	.	.	.
8d	you	2Dm	.	voice	.	146.798	D:min
8d	cra-	.	.	.	.	.	.
8c	-zy	.	.	.	.	.	.
8c	you've	.	.	.	.	.	.
=54	=54	=54	=54	=54	=54	=54	=54
8e	ta-	2CM	.	voice	.	148.185	C:maj/3
8f	-ken	.	.	.	.	.	.
8g	all	.	.	.	.	.	.
8g	you	.	.	.	.	.	.
8a	can	2FM	.	voice	.	149.572	F:maj
8c	bear	.	.	.	G	.	.
8r	.	.	.	.	.	.	.
8c	You	.	.	.	.	.	.
=55	=55	=55	=55	=55	=55	=55	=55
8e-	call	2Am	.	voice	.	150.959	A:min
8d	me	.	.	.	.	.	.
8d	up	.	.	.	.	.	.
4r	.	.	.	.	.	.	.
.	.	2GM	.	voice	.	152.346	G:maj
8G	be-	.	.	.	.	.	.
8G	-cause	.	.	.	.	.	.
8G	you	.	.	.	.	.	.
=56	=56	=56	=56	=56	=56	=56	=56
8c	know	2FM	.	voice	.	153.733	F:maj/5
8c	I'll	.	.	.	.	.	.
8c	be	.	.	.	.	.	.
8G	there	.	.	.	G	.	.
8r	.	2CM	.	voice	.	155.12	C:maj
16c	And	.	.	.	.	.	.
16c	I	.	.	.	.	.	.
8e	see	.	.	.	.	.	.
8g	your	.	.	.	.	.	.
=57	=57	=57	=57	=57	=57	=57	=57
*>Letter>D2	*>Letter>D2	*>Letter>D2	*>Letter>D2	*>Letter>D2	*>Letter>D2	*>Letter>D2	*>Letter>D2
*>Label>Chorus	*>Label>Chorus	*>Label>Chorus	*>Label>Chorus	*>Label>Chorus	*>Label>Chorus	*>Label>Chorus	*>Label>Chorus
4.a	true	2FM	newline	voice	D	156.506	F:maj
[8a	co-	.	.	.	.	.	.
8a]	_	2CM	.	voice	.	157.894	C:maj
[8g	-lors	.	.	.	.	.	.
8g]	_	.	.	.	.	.	.
[8e	shi-	.	.	.	.	.	.
=58	=58	=58	=58	=58	=58	=58	=58
8e]	_	2GM	.	voice	.	159.282	G:sus4
8d	-ning	.	.	.	.	.	.
[8d	through	.	.	.	D	.	.
8d]	_	.	.	.	.	.	.
8r	.	2GM	.	voice	.	160.669	G:maj
8c	I	.	.	.	.	.	.
8e	see	.	.	.	.	.	.
8g	your	.	.	.	.	.	.
=59	=59	=59	=59	=59	=59	=59	=59
4.a	true	2FM	newline	voice	D	162.057	F:maj
8a	co-	.	.	.	.	.	.
8g	_	2CM	.	voice	.	163.46	C:maj/3
8g	-lors,	.	.	.	.	.	.
8r	.	.	.	.	.	.	.
8c	and	.	.	.	.	.	.
=60	=60	=60	=60	=60	=60	=60	=60
8a	that's	2FM	.	voice	.	164.862	F:maj
8a	why	.	.	.	.	.	.
8a	I	.	.	.	.	.	.
[8a	lo-	.	.	.	.	.	.
8a]	_	2GM	.	voice	.	166.265	G:maj
8g	-ve	.	.	.	.	.	.
8g	you	.	.	.	D	.	.
8g	So	.	.	.	.	.	.
=61	=61	=61	=61	=61	=61	=61	=61
8cc	don't	2FM	.	voice	.	167.668	F:maj
8cc	be	.	.	.	.	.	.
8a	a-	.	.	.	.	.	.
[8cc	-fraid	.	.	.	.	.	.
4cc]	_	2CM	.	voice	.	169.071	C:maj
8c	to	.	.	.	.	.	.
8r	.	.	.	.	.	.	.
=62	=62	=62	=62	=62	=62	=62	=62
8d	let	2FM	.	voice	.	170.474	F:maj
[8d	it	.	.	.	.	.	.
8d]	_	.	.	.	.	.	.
[8d	show	.	.	.	E	.	.
8d]	_	2Am	.	voice	.	171.877	A:min
8c	_	.	.	.	.	.	.
8r	.	.	.	.	.	.	.
8c	your	.	.	.	.	.	.
=63	=63	=63	=63	=63	=63	=63	=63
4.c	true	2FM	newline	voice	D	173.279	F:maj/5
[8c	co-	.	.	.	.	.	.
8c]	_	2CM	.	voice	.	174.68	C:maj
8c	-lors	.	.	.	.	.	.
4r	.	.	.	.	.	.	.
=64	=64	=64	=64	=64	=64	=64	=64
4.c	True	2FM	.	voice	D	176.081	F:maj/5
[8c	co-	.	.	.	.	.	.
8c]	_	2CM	.	voice	.	177.482	C:maj
8c	-lors	.	.	.	.	.	.
4r	.	.	.	.	.	.	.
=65	=65	=65	=65	=65	=65	=65	=65
4.c	true	2FM	newline	voice	D	178.882	F:maj/5
[8c	co-	.	.	.	.	.	.
8c]	_	2CM	.	voice	.	180.259	C:maj
8e	-lors	.	.	.	.	.	.
8g	are	.	.	.	.	.	.
[8a	shi-	.	.	.	.	.	.
=66	=66	=66	=66	=66	=66	=66	=66
8a]	_	2GM	.	voice	.	181.637	G:sus4
8g	-ning	.	.	.	.	.	.
[8a	through	.	.	.	D	.	.
8a]	_	.	.	.	.	.	.
8r	.	2GM	.	voice	.	183.014	G:maj
8c	I	.	.	.	.	.	.
8e	see	.	.	.	.	.	.
8g	your	.	.	.	.	.	.
=67	=67	=67	=67	=67	=67	=67	=67
4.a	true	2FM	newline	voice	.	184.391	F:maj
8a	co-	.	.	.	.	.	.
8g	_	2CM	.	voice	.	185.787	C:maj
8g	-lors	.	.	.	.	.	.
8r	.	.	.	.	.	.	.
8g	and	.	.	.	.	.	.
=68	=68	=68	=68	=68	=68	=68	=68
8a	that's	2FM	.	voice	.	187.184	F:maj
8a	why	.	.	.	.	.	.
8a	I	.	.	.	.	.	.
16a	lo-	.	.	.	.	.	.
16b-	_	.	.	.	.	.	.
8b-	_	4GM	.	voice	.	188.581	G:sus4
8a	ve	.	.	.	.	.	.
8g	you	4GM	.	voice	D	189.279	G:maj
8g	So	.	.	.	.	.	.
=69	=69	=69	=69	=69	=69	=69	=69
8cc	don't	2FM	newline	voice	.	189.977	F:maj
8cc	be	.	.	.	.	.	.
8a	a-	.	.	.	.	.	.
[8cc	-fraid	.	.	.	.	.	.
4cc]	_	2CM	.	voice	.	191.455	C:maj
8r	.	.	.	.	.	.	.
8e	to	.	.	.	.	.	.
=70	=70	=70	=70	=70	=70	=70	=70
8d	let	2Emm	.	voice	.	192.932	E:min7
[8d	them	.	.	.	.	.	.
8d]	_	.	.	.	.	.	.
[8d	show	.	.	.	E	.	.
8d]	_	2Am	.	voice	.	194.41	A:min
8c	_	.	.	.	.	.	.
8r	.	.	.	.	.	.	.
8c	your	.	.	.	.	.	.
=71	=71	=71	=71	=71	=71	=71	=71
4.c	true	2FM	newline	voice	.	195.887	F:maj/5
[8c	co-	.	.	.	.	.	.
8c]	_	2CM	.	voice	.	197.502	C:maj
8c	-lors	.	.	.	.	.	.
4r	.	.	.	.	.	.	.
=72	=72	=72	=72	=72	=72	=72	=72
4.c	true	2FM	.	voice	.	199.116	F:maj/5
[8c	co-	.	.	.	.	.	.
16c]	_	2CM	.	voice	.	200.73	C:maj
16d	_	.	.	.	.	.	.
8e	-lors	.	.	.	.	.	.
8r	.	.	.	.	.	.	.
8A	are	.	.	.	.	.	.
=73	=73	=73	=73	=73	=73	=73	=73
4..e	beau-	1GM	newline	voice	.	202.345	G:sus4(9)
16d	-ti-	.	.	.	.	.	.
4d;	-ful	.	.	.	.	.	.
8c	like	.	.	.	.	.	.
8c	a	.	.	.	.	.	.
=74	=74	=74	=74	=74	=74	=74	=74
4..c	rain-	1r;	.	r	.	205.914	N.C.
16B	_	.	.	.	.	.	.
8A	_	.	.	.	.	.	.
[4.A	-bow	.	.	.	E	.	.
=75	=75	=75	=75	=75	=75	=75	=75
*>Letter>B2	*>Letter>B2	*>Letter>B2	*>Letter>B2	*>Letter>B2	*>Letter>B2	*>Letter>B2	*>Letter>B2
*>Label>Trans	*>Label>Trans	*>Label>Trans	*>Label>Trans	*>Label>Trans	*>Label>Trans	*>Label>Trans	*>Label>Trans
1A]	_	2Amm	newline	guitar	.	209.482	A:min7
.	.	2GM	.	guitar	.	210.558	G:maj/3
=76	=76	=76	=76	=76	=76	=76	=76
*M3/8	*	*M3/8	*	*	*	*	*M3/8
4.r	.	4.CMM	.	guitar	.	211.633	C:maj7
*>Letter>A2	*>Letter>A2	*>Letter>A2	*>Letter>A2	*>Letter>A2	*>Letter>A2	*>Letter>A2	*>Letter>A2
*>Label>Outro	*>Label>Outro	*>Label>Outro	*>Label>Outro	*>Label>Outro	*>Label>Outro	*>Label>Outro	*>Label>Outro
=77	=77	=77	=77	=77	=77	=77	=77
*M4/4	*	*	*	*	*	*	*
1r	.	1FM	newline	drums	.	212.708	F:maj
=78	=78	=78	=78	=78	=78	=78	=78
1r	.	1N	.	drums	.	213.514	N.C.
=79	=79	=79	=79	=79	=79	=79	=79
1r	.	1N	.	drums	.	213.783	N.C.
=80	=80	=80	=80	=80	=80	=80	=80
1r	.	1N	.	drums	.	216.681	N.C.
r;	.	1r;	.	r	.	225.375	N.C.
r;	.	1r;	.	r	.	228.222	N.C.
*-	*-	*-	*-	*-	*-	*-	*-
!!!BillboardChartDate: 1986/09/13
!!!BillboardPeak: 1
!!!BillboardWeeksOnChart: 20
!!!COC: Cyndi Lauper
!!!EMD: Emm chord should be major? Lots of 4. [8 2] rhythm needs to be added.
!!!EMD: Made fixes to "leadinstrument" spine, which had "guitar" throughout verses and choruses.
!!!ENC: Nathaniel Condit-Schultz
!!!EST: Awating manual error checking and editing.
!!!OTL: True Colors
!!!RDF**chordsym: original McGill chord annotation + (implied pitch class set, with bass pitch in first position)
!!!RDF**harmony: **recip + pitch class of root + harmonic quality
!!!RDF**leadinstrument: original McGill primary instrumentation annotation
!!!RDF**phrase: newline = linebreak in original McGill transcription
!!!RDF**timestamp: McGill audio timestamp in seconds
!!!RDT: 2017/01/12/
!!!SampleActualRank: 40
!!!SampleID#: 0803
!!!SampleTargetRank: 38
